8/img/stack.svg

<svg xmlns="http://www.w3.org/2000/svg">
      <style>:root svg:not:(:target) {display: none} </style>
      <svg viewBox="0 0 20 20" fill="none" id="icon-email">
        <path d="M1.50034 8.5V16.5H18.5041V8.5M1.50034 3.5H18.5041V5.5L10.0022 11.5L1.50034 5.5V3.5Z" stroke="black" stroke-linecap="round" stroke-linejoin="round"/>
      </svg>
      <svg viewBox="0 0 20 20" fill="none" id="icon-phone">
        <path d="M10 10H18.5M18.5 10L16 7.5M18.5 10L16 12.5M8.5 2.5V7.5H5.5V12.5H8.5V17.5H6C4.5 17.5 3.5 16.5 3.5 15V5C3.5 3.5 4.5 2.5 6 2.5H8.5Z" stroke="black" stroke-linecap="round" stroke-linejoin="round"/>
      </svg>
  </svg>

<svg xmlns="http://www.w3.org/2000/svg"><style>:root svg:not(:target){display:none}</style><svg viewBox="0 0 20 20" fill="none" id="icon-email"><path d="M1.5 8.5v8h17.004v-8M1.5 3.5h17.004v2l-8.502 6-8.502-6v-2Z" stroke="#000" stroke-linecap="round" stroke-linejoin="round"/></svg><svg viewBox="0 0 20 20" fill="none" id="icon-phone"><path d="M10.002 10h8.502m0 0-2.5-2.5m2.5 2.5-2.5 2.5m-7.502-10v5h-3v5h3v5h-2.5C4.5 17.5 3.5 16.5 3.5 15V5c0-1.5 1-2.5 2.5-2.5h2.5Z" stroke="#000" stroke-linecap="round" stroke-linejoin="round"/></svg></svg>
